flaticon/interaction/speech-bubble-6.svg

<svg xmlns="http://www.w3.org/2000/svg" width="32" height="32" viewBox="0 0 24 24">
    <path d="M 18.671875 13.625 C 17.714844 13.625 16.910156 14.203125 16.398438 14.910156 C 15.886719 14.203125 15.082031 13.625 14.125 13.625 C 12.597656 13.625 11.378906 14.808594 11.21875 16.445312 C 11.203125 16.550781 11.160156 16.933594 11.308594 17.527344 C 11.527344 18.40625 12.027344 19.207031 12.761719 19.835938 L 16.089844 22.6875 C 16.179688 22.761719 16.289062 22.800781 16.398438 22.800781 C 16.507812 22.800781 16.617188 22.761719 16.707031 22.6875 L 20.039062 19.835938 C 20.769531 19.207031 21.269531 18.40625 21.488281 17.527344 C 21.636719 16.933594 21.597656 16.550781 21.578125 16.445312 C 21.417969 14.808594 20.199219 13.625 18.671875 13.625 Z M 20.710938 17.335938 C 20.535156 18.054688 20.121094 18.707031 19.515625 19.230469 L 16.398438 21.898438 L 13.28125 19.230469 C 12.675781 18.707031 12.261719 18.054688 12.085938 17.335938 C 11.964844 16.851562 12.007812 16.578125 12.007812 16.578125 L 12.015625 16.535156 C 12.113281 15.488281 12.867188 14.425781 14.125 14.425781 C 15 14.425781 15.714844 15.148438 16.035156 15.867188 L 16.398438 16.691406 L 16.765625 15.867188 C 17.082031 15.148438 17.796875 14.425781 18.671875 14.425781 C 19.929688 14.425781 20.6875 15.488281 20.789062 16.570312 C 20.789062 16.574219 20.835938 16.847656 20.710938 17.335938 Z M 20.710938 17.335938"/>
    <path d="M 16.796875 0 L 7.199219 0 C 3.230469 0 0.00390625 3.230469 0.00390625 7.199219 L 0.00390625 12.796875 C 0.00390625 16.632812 3.015625 19.777344 6.800781 19.984375 L 6.800781 23.320312 C 6.800781 23.597656 6.964844 23.84375 7.21875 23.949219 C 7.304688 23.984375 7.394531 24 7.480469 24 C 7.65625 24 7.828125 23.929688 7.960938 23.800781 L 8.710938 23.050781 C 9.472656 22.285156 10.347656 21.648438 11.304688 21.15625 C 11.5 21.054688 11.578125 20.8125 11.480469 20.617188 C 11.378906 20.421875 11.136719 20.34375 10.941406 20.445312 C 9.90625 20.976562 8.964844 21.664062 8.144531 22.484375 L 7.601562 23.027344 L 7.601562 19.195312 L 7.199219 19.195312 C 3.671875 19.195312 0.800781 16.324219 0.800781 12.796875 L 0.800781 7.199219 C 0.800781 3.671875 3.671875 0.800781 7.199219 0.800781 L 16.796875 0.800781 C 20.328125 0.800781 23.195312 3.671875 23.195312 7.199219 L 23.195312 12.796875 C 23.195312 13.71875 23 14.617188 22.605469 15.46875 C 22.515625 15.667969 22.601562 15.90625 22.800781 16 C 23.003906 16.089844 23.238281 16.003906 23.332031 15.800781 C 23.773438 14.847656 23.996094 13.835938 23.996094 12.796875 L 23.996094 7.199219 C 23.996094 3.230469 20.769531 0 16.796875 0 Z M 16.796875 0"/>
</svg>

<svg xmlns="http://www.w3.org/2000/svg" width="32" height="32" viewBox="0 0 24 24">
    <path d="M18.672 13.625c-.957 0-1.762.578-2.274 1.285-.511-.707-1.316-1.285-2.273-1.285-1.527 0-2.746 1.184-2.906 2.82-.016.106-.059.489.09 1.082a4.46 4.46 0 0 0 1.453 2.309l3.328 2.852c.09.074.2.113.308.113.11 0 .22-.04.309-.113l3.332-2.852a4.478 4.478 0 0 0 1.45-2.309c.148-.593.109-.976.09-1.082-.161-1.636-1.38-2.82-2.907-2.82zm2.039 3.71c-.176.72-.59 1.372-1.195 1.895l-3.118 2.668-3.117-2.668c-.605-.523-1.02-1.175-1.195-1.894-.121-.484-.078-.758-.078-.758l.008-.043c.097-1.047.851-2.11 2.109-2.11.875 0 1.59.723 1.91 1.442l.363.824.368-.824c.316-.719 1.03-1.441 1.906-1.441 1.258 0 2.015 1.062 2.117 2.144 0 .004.047.278-.078.766zm0 0"/>
    <path d="M16.797 0H7.199C3.23 0 .004 3.23.004 7.2v5.597A7.204 7.204 0 0 0 6.8 19.984v3.336a.677.677 0 0 0 1.16.48l.75-.75a10.298 10.298 0 0 1 2.594-1.894.406.406 0 0 0 .175-.539.401.401 0 0 0-.539-.172 11.156 11.156 0 0 0-2.796 2.04l-.543.542v-3.832h-.403a6.407 6.407 0 0 1-6.398-6.398V7.199A6.407 6.407 0 0 1 7.199.801h9.598a6.404 6.404 0 0 1 6.398 6.398v5.598c0 .922-.195 1.82-.59 2.672-.09.199-.003.437.196.531.203.09.437.004.531-.2a7.102 7.102 0 0 0 .664-3.003V7.199C23.996 3.23 20.77 0 16.796 0zm0 0"/>
</svg>
